X: 2340
T: Bag Of Spuds, The
R: reel
M: 4/4
K: Adorian
|:A2eA (3cBA eA|ABcd eBdB|G2dG (3BAG dB|G2 BB GBdB|
A2eA (3cBA eA|ABcd eBdB|ABcd edBc|dBgd BAA2:|
a2ea ag (3efg|ac'bg agef|gedc BGBd|g3a bgeg|
a2ea ag (3efg|ac'bg ageg|d3e gage|dBGB BA A2|
a2ea ag (3efg|ac'bg agef|gedc BGBd|g3a bgeg|
ed (3efg agab|c'abg ageg|d3e gage|dBGB BA A2||

